src/topics/icons/kirby.svg

<svg height="291" preserveAspectRatio="xMidYMid" viewBox="0 0 256 291" width="256" xmlns="http://www.w3.org/2000/svg"><path d="m128 0-128 72.6981402v145.2131618l128 72.69814 128-72.69814v-145.2131618zm56.949928 148.32618-35.891273 19.410587v2.563662h35.891273v28.017168h-114.0829752v-28.017168h35.8912732v-2.746781l-35.8912732-19.227468v-34.792561l57.1330472 30.763949 56.949928-30.763949z" fill="#ff0200"/></svg>

<?xml version="1.0" encoding="UTF-8" standalone="no"?>
<svg width="256px" height="291px" viewBox="0 0 256 291" version="1.1" xmlns="http://www.w3.org/2000/svg" xmlns:xlink="http://www.w3.org/1999/xlink" preserveAspectRatio="xMidYMid">
    <g>
        <path d="M128,0 L0,72.6981402 L0,217.911302 L128,290.609442 L256,217.911302 L256,72.6981402 L128,0 L128,0 Z M184.949928,148.32618 L149.058655,167.736767 L149.058655,170.300429 L184.949928,170.300429 L184.949928,198.317597 L70.8669528,198.317597 L70.8669528,170.300429 L106.758226,170.300429 L106.758226,167.553648 L70.8669528,148.32618 L70.8669528,113.533619 L128,144.297568 L184.949928,113.533619 L184.949928,148.32618 L184.949928,148.32618 Z" fill="#FF0200"></path>
    </g>
</svg>
